!!!COM: Fe/licien David
!!!CNT: Francais
!!!TXO: Francais
!!!OTL: Magdeleine
!!!LYR: Emile Barateau
!!!ENC: Jacob Pegg
!!!YOR: Romantic French Song 1830-1870, David Tunley, ed., New York: Garland Publishing, Inc., 1995
!!!ODT: 1847/
!!NB: Vocal melody and text only encoded.
!!NB: Only first strophe encoded.
**kern	**silbe
*clef G2	*
*k[b-e-]	*
*M2/4	*
=1	=1
2r	.
=2	=2
2r	.
=3	=3
4r	.
{8dd	{Cro-
8ee-	-yez
=4	=4
8dd	moi,
8cc	quand
8.b-	Mag-
16a	-de-
=5	=5
8b-	-lei-
8g}	-ne}
{8g	{E-
(16a	-tait
16b-)	|
=6	=6
8cc	bien
8dd	pauvre
8.ff	en
16ee-	ces
=7	=7
4dd}	lieux,}
{8dd	{Sous
8ee-	un
=8	=8
8dd	simple
8cc	ha-
8.b-	-bit
16a	de
=9	=9
8b-	lai-
8g}	-ne,}
{8b-	{Je
16a	la
16g	trou-
=10	=10
(8a	-vais
8ff)	|
8.een	cent
16dd	fois
=11	=11
4dd}	mieux!...}
{8dd	{Oui,
(16ee-	sous
16dd)	|
=12	=12
8cc	un
8dd	ha-
8.b-	-bit
16cc	de
=13	=13
8dd	lai-
8b-}	-ne,}
{8dd	{Moi,
(16cc	Je
16dd)	|
=14	=14
8ee-	trou-
8dd	-vais
8.cc#	Mag-
16cc#	-de-
=15	=15
8een	-lei-
8dd}	-ne,}
{8.dd	{cent
16ee-	fois
=16	=16
4cc	mieux,
8.a	cent
16dd	fois
=17	=17
4g}	mieux!...}
4r	.
=18	=18
2r	.
=19	=19
*k[f#]	*
4r	.
{8b	{Ri-
(16a	-che
16b)	|
=20	=20
8cc	da-
8b	-me,
8dd	El-
16cc	-le
16dd	est
=21	=21
8ee	fem-
8dd	-me
8b	Du
(16dd	sei-
16cc)	|
=22	=22
8a	-gneur
8b	de
8.g	ce
16a	cha^-
=23	=23
4a}	-teau;}
{8b	{Et
(16a	l'her-
16b)	|
=24	=24
8c	-mi-
8b	-ne,
8dd	Dou-
(16cc	-ce
16dd)	et
=25	=25
8ee	fi-
8dd}	-ne,}
{8g	{Lui
(16g	sert
16a)	|
=26	=26
8b	de
(16b	bril-
16cc)	|
8a	-lant
8dd	man-
=27	=27
4g}	-teau!}
{(cc#q	{ah!
[4dd)	|
=28	=28
4dd]	|
(cc#q	ah!
[4dd)	|
=29	=29
4dd]}	|}
4r	.
*-	*-
